packages/ffe-icons/icons/filled/md/4g_mobiledata.svg

<svg xmlns="http://www.w3.org/2000/svg" height="24" viewBox="0 -960 960 960" width="24"><path d="M319.987-290.001q-12.756 0-21.371-8.625-8.615-8.624-8.615-21.374v-90.001H160q-12.75 0-21.374-8.625-8.625-8.624-8.625-21.374v-200q0-12.75 8.628-21.375 8.629-8.624 21.384-8.624 12.756 0 21.371 8.624 8.615 8.625 8.615 21.375v170.001h100.002V-640q0-12.75 8.628-21.375 8.629-8.624 21.384-8.624 12.756 0 21.371 8.624 8.615 8.625 8.615 21.375v170.001H400q12.75 0 21.374 8.628 8.625 8.629 8.625 21.384 0 12.756-8.625 21.371-8.624 8.615-21.374 8.615h-50.001V-320q0 12.75-8.628 21.374-8.629 8.625-21.384 8.625Zm242.321 0q-29.827 0-51.067-21.24t-21.24-51.067v-235.384q0-29.827 21.24-51.067t51.067-21.24H800q12.75 0 21.375 8.628 8.624 8.629 8.624 21.384 0 12.756-8.624 21.371-8.625 8.615-21.375 8.615H562.308q-5.385 0-8.847 3.462-3.462 3.462-3.462 8.847v235.384q0 5.385 3.462 8.847 3.462 3.462 8.847 3.462h195.384q5.385 0 8.847-3.462 3.462-3.462 3.462-8.847v-87.693H700q-12.75 0-21.375-8.628-8.624-8.629-8.624-21.384 0-12.756 8.624-21.371 8.625-8.615 21.375-8.615h100q12.75 0 21.375 8.625 8.624 8.624 8.624 21.374v117.692q0 29.827-21.24 51.067t-51.067 21.24H562.308Z"/></svg>

<svg xmlns="http://www.w3.org/2000/svg" height="24" viewBox="0 -960 960 960" width="24"><path d="M319.99-290q-12.76 0-21.37-8.63Q290-307.25 290-320v-90H160q-12.75 0-21.37-8.63Q130-427.25 130-440v-200q0-12.75 8.63-21.37 8.63-8.63 21.38-8.63 12.76 0 21.37 8.63Q190-652.75 190-640v170h100v-170q0-12.75 8.63-21.37 8.63-8.63 21.38-8.63 12.76 0 21.37 8.63Q350-652.75 350-640v170h50q12.75 0 21.37 8.63 8.63 8.63 8.63 21.38 0 12.76-8.63 21.37Q412.75-410 400-410h-50v90q0 12.75-8.63 21.37-8.63 8.63-21.38 8.63Zm242.32 0q-29.83 0-51.07-21.24Q490-332.48 490-362.31v-235.38q0-29.83 21.24-51.07Q532.48-670 562.31-670H800q12.75 0 21.37 8.63 8.63 8.63 8.63 21.38 0 12.76-8.63 21.37Q812.75-610 800-610H562.31q-5.39 0-8.85 3.46t-3.46 8.85v235.38q0 5.39 3.46 8.85t8.85 3.46h195.38q5.39 0 8.85-3.46t3.46-8.85V-450h-70q-12.75 0-21.37-8.63-8.63-8.63-8.63-21.38 0-12.76 8.63-21.37Q687.25-510 700-510h100q12.75 0 21.37 8.63Q830-492.75 830-480v117.69q0 29.83-21.24 51.07Q787.52-290 757.69-290H562.31Z"/></svg>
